assets/icons/regular/onenote-icon-regular.svg

<svg width="32" height="32" viewBox="0 0 32 32" fill="none" xmlns="http://www.w3.org/2000/svg">
<path d="M28 3.5C28 2.67157 28.6716 2 29.5 2H30.5C31.3284 2 32 2.67157 32 3.5V8.5C32 9.32843 31.3284 10 30.5 10H29.5C28.6716 10 28 9.32843 28 8.5V3.5Z" fill="#AE4BD5"/>
<path d="M28 13.5C28 12.6716 28.6716 12 29.5 12H30.5C31.3284 12 32 12.6716 32 13.5V18.5C32 19.3284 31.3284 20 30.5 20H29.5C28.6716 20 28 19.3284 28 18.5V13.5Z" fill="#9332BF"/>
<path d="M28 23.5C28 22.6716 28.6716 22 29.5 22H30.5C31.3284 22 32 22.6716 32 23.5V28.5C32 29.3284 31.3284 30 30.5 30H29.5C28.6716 30 28 29.3284 28 28.5V23.5Z" fill="#7719AA"/>
<path fill-rule="evenodd" clip-rule="evenodd" d="M7.5 29.2064V2.79365C7.5 1.25076 8.73122 0 10.25 0H26.75C28.2688 0 29.5 1.25076 29.5 2.79365V29.2064C29.5 30.7492 28.2688 32 26.75 32H10.25C8.73122 32 7.5 30.7492 7.5 29.2064ZM9.25 2.79365V29.2064C9.25 29.7674 9.69772 30.2222 10.25 30.2222H26.75C27.3023 30.2222 27.75 29.7674 27.75 29.2064V2.79365C27.75 2.2326 27.3023 1.77778 26.75 1.77778H10.25C9.69772 1.77778 9.25 2.2326 9.25 2.79365Z" fill="#9D9C9B"/>
<path d="M0 9.25C0 8.42157 0.671573 7.75 1.5 7.75H16.5C17.3284 7.75 18 8.42157 18 9.25V24.25C18 25.0784 17.3284 25.75 16.5 25.75H1.5C0.671573 25.75 0 25.0784 0 24.25V9.25Z" fill="#7719AA"/>
<path d="M4 21.5V12H5.75L12.25 18.5V12H14V21.5H12.25L5.75 15V21.5H4Z" fill="white"/>
</svg>

<svg xmlns="http://www.w3.org/2000/svg" width="32" height="32" fill="none" viewBox="0 0 32 32"><path fill="#AE4BD5" d="M28 3.5A1.5 1.5 0 0 1 29.5 2h1A1.5 1.5 0 0 1 32 3.5v5a1.5 1.5 0 0 1-1.5 1.5h-1A1.5 1.5 0 0 1 28 8.5z"/><path fill="#9332BF" d="M28 13.5a1.5 1.5 0 0 1 1.5-1.5h1a1.5 1.5 0 0 1 1.5 1.5v5a1.5 1.5 0 0 1-1.5 1.5h-1a1.5 1.5 0 0 1-1.5-1.5z"/><path fill="#7719AA" d="M28 23.5a1.5 1.5 0 0 1 1.5-1.5h1a1.5 1.5 0 0 1 1.5 1.5v5a1.5 1.5 0 0 1-1.5 1.5h-1a1.5 1.5 0 0 1-1.5-1.5z"/><path fill="#9D9C9B" fill-rule="evenodd" d="M7.5 29.206V2.794C7.5 1.25 8.731 0 10.25 0h16.5c1.519 0 2.75 1.25 2.75 2.794v26.412C29.5 30.75 28.269 32 26.75 32h-16.5c-1.519 0-2.75-1.25-2.75-2.794M9.25 2.794v26.412c0 .561.448 1.016 1 1.016h16.5c.552 0 1-.455 1-1.016V2.794c0-.561-.448-1.016-1-1.016h-16.5c-.552 0-1 .455-1 1.016" clip-rule="evenodd"/><path fill="#7719AA" d="M0 9.25a1.5 1.5 0 0 1 1.5-1.5h15a1.5 1.5 0 0 1 1.5 1.5v15a1.5 1.5 0 0 1-1.5 1.5h-15a1.5 1.5 0 0 1-1.5-1.5z"/><path fill="#fff" d="M4 21.5V12h1.75l6.5 6.5V12H14v9.5h-1.75L5.75 15v6.5z"/></svg>
